X:1
T:She's Always a Woman
T:She's Always a Woman
T:Billy Joel
T:Billy Joel
C:Billy Joel
Z:All Rights Reserved
L:1/8
M:12/8
K:Eb
V:1 treble 
%%MIDI program 40
%%MIDI control 7 100
%%MIDI control 10 64
V:1
"Eb""Ebsus4""Eb""Bb" z12 |"Eb""Ab/Eb" z6"Eb" z z F/F/"Bb" FGB ||[M:6/8]"Eb" G2 F/E/"Bb" FGB | %3
w: |She can kill with a|smile she can wound with her|
w: |||
[M:9/8]"Eb" G>FE- E z B/B/ Bce |[M:6/8]"Ab" cBA"Abmaj7" Bce | %5
w: eyes _ _ _ she can ru- in- your|faith with her cas- u- al|
w: ||
[M:9/8]"Ab" c3"Abmaj7" z z F/F/"Bb7" FGB |[M:12/8]"Eb" G2 F/F/"Bb" FGB"G" G3 z z G | %7
w: lies And she on- ly re-|veals what she wants you to see She|
w: ||
"Cm" FEG"Cm/Bb" FEG"Ab" FE>G"Bb7" FE>D |"Eb""Ebsus4" E6"Eb" z z F/F/"Bb" FGB | %9
w: hides like a child but she's al- ways a wom- an to|me She can lead you to|
w: ||
[M:6/8]"Eb" G2 F/E/"Bb" FGB |[M:9/8]"Eb" G E2 z z B/B/ Bce |[M:6/8]"Ab" cBA"Abmaj7" Bce | %12
w: love she can take you or|leave you She can ask for the|truth but she'll nev- er be-|
w: |||
[M:9/8]"Ab6" c B2"Ab" z z F/F/"Bb7" FGB |[M:12/8]"Eb" GFE"Bb7" FGB"G" G3 z z F/F/ | %14
w: lieve you And she'll take what you|give her as long as it's free Yeah she|
w: ||
"Cm" FEG"Cm/Bb" FEG"Ab6" FE>G"Bb7" FE>D |"Eb""Ebsus4" E6"Eb""Eb/D" z6 || %16
w: steals like a thief but she's al- ways a wom- an to|me|
w: ||
S"Cm""Cm/Bb" e6-"F7/A" ecd"F7" ffc |"Bb""Bb/A" d6-"Gm" dBc"Eb" deB | %18
w: Oh _ she takes care of her-|self _ she can wait if she|
w: ||
"Ab""Ab/G" c6"Fm" z AB"Bb7" cBA |"Eb" B6 z2 z4 |"Ebm""Ebm/Db" _g6-"Cm" gef"Ab" gae | %21
w: wants she's a- head of her|time|Oh _ and she nev- er gives|
w: |||
"Db""Db/C" f6"Bbm" f_de"Gb6" f_gd |"Cb""Cb/Bb" e6"Adim7" z cd"F7" edc | %23
w: out _ and she nev- er gives|in she just chan- ges her|
w: ||
"Bb""Bb6" B6"Bb7" z z F/F/ FGB |[M:6/8]"Eb" G2 F/E/"Bb" FGB |[M:9/8]"Eb" G>FE z z B/B/"Eb7" Bce | %26
w: mind And she'll pro- mise you|more than the gar- den of|E- * den Then she'll care- less- ly|
w: * She is fre- quent- ly|kind and she's sud- den- ly|cru- * el She can do as she|
[M:6/8]"Ab" cBA"Abmaj7" Bce |[M:9/8]"Ab6" c A2- A z F/F/"Bb7" FGB | %28
w: cut you and laugh while you're|bleed- in' _ But she brings out the|
w: pleas- es she's no- bo- dy's|fool _ _ But she can't be con-|
[M:12/8]"Eb" GFE"Bb7" FGB"G" G3 z z G/G/!dacoda! |"Cm" FEG"Cm/Bb" FEG"Ab6" FE>G"Bb7" FE>D | %30
w: best and the worst you can be Blame it|all on your- self cause she's al- ways a wom- an to|
w: vict- ed, she's earned her de- gree And the||
"Eb""Ebsus4" E6"Eb" z z F"Bb" FGB |"Eb" G2 F"Bb" FGB"G" G3- G2 G | %32
w: me Mm _ _ _|_ _ _ _ _ _ _ _|
w: ||
"Cm" cBG"Cm/Bb" cBG"Ab6" FEG"Bb7" FE>D |"Eb""Ebsus4" E6"Eb" z2"Eb/D" z4!D.S.! |O cBB BBe cBG FEG | %35
w: ||most she will do is throw sha- dows at you but she's|
w: |||
[M:6/8] FE>G FE>D |[M:12/8]"Eb""Ebsus4" E6"Eb" z z F"Bb" FGB |"Eb" G2 F"Bb" FGB"G" G3- G2 G | %38
w: al- ways a wom- an to|me Mm _ _ _|_ _ _ _ _ _ _ _|
w: |||
"Cm" cBG"Cm/Bb" cBG"Ab6" FEG"Bb7" FED |"Eb""Ebsus4" E6-"Eb" E6 |] %40
w: ||
w: ||

